!!! OTL: Literature86
!!! Chapter: 5
!!! Section: II
!!! Page: 364
!!! Mode: 
!!! Encoder: ESM
**kern
*staff1
*I"Piano
=1-
*clefF4
*k[b-e-]
*g:
*M4/4
4G\
4d\
8c\L
8B-\
8A\
8G\J
=2
8F\L
16G\L
16A\JJ
8B-\L
8A\J
4G\
4D\
=3
4D\
4A\
8G\L
8A\
8B-\
8c\J
=4
8d\L
8e-\
8d\
8c\J
4.d\
8r
=5
4G\
4d\
8c\L
8B-\
8A\
8G\J
=6
8F\L
16G\L
16A\JJ
8B-\L
8A\J
4G\
4D\
=7
!!linebreak:original
4D\
4A\
8G\L
8A\
8B-\
8c\J
=8
8d\L
8e-\
8d\
8c\J
4.d\
8r
==
*-
